X: 1
T:Gan Ainm
R:jig
M:6/8
L:1/8
K:Ador
~A3 ABA|GEE G2B|ABA GBd|edB gdB|!
~A3 ABA|GEE G2B|dBA GAB|1 ded dBG:|2 ded dBA||!
|:def g2b|agf g2e|def g2f|edB dBA|!
def g2b|agf g2a|bag agf|gag edB:|!
